X:1
T:Per illud ave
T:Per illud ave
T:Josquin des Prez
T:Source : Biciniorum---Leipzig---J.Apelio---1612. Editor : André Vierendeels (23/04/15).
T:Notes : Original clefs : C1, C3 . Transcription a fourth higher. Editorial accidentals above the staff Little differences with the original of Josquin This piece is the second part from the 6v motet "Benedicta tu es coelorum regina"
C:Josquin des Prez
%%score [ 1 2 ]
L:1/8
Q:1/4=84
M:4/2
K:F
V:1 treble nm="Superius 1" snm="S 1"
V:2 treble nm="Superius 2" snm="S 2"
V:1
 z4 d4 f2 f2 f4 | e2 c2 d4 cdef g3 f/e/ | d2 c2 d4 c4 z2 c2 | d2 e2 f3 e/d/ c2 d4 e2- | %4
w: Per il- lud a-|ve pro- la- tum, _ _ _ _ _ _|_ pro- la- tum, et|et- tu- um _ _ _ re- spon-|
 e2 c4 =B2 c4 z4 | d4 e6 c2 c2 f2- | f2 e2 d2 c2 B2 G2 A4 | G8 z2 G2 B4 | d2 GA Bc d4 c4 =B2 | %9
w: sum da- * tum,|ex te ver- bum in-|* car- na- * * * *|tum, quo sal-|van- tur _ _ _ _ o- mni-|
"^b" c2 G2 B4 d2 GA Bc d2- | d2 c4 =B2 c2 GA _Bc d2 | G2 gf ed c2 fedc BA G2 | %12
w: a, quo sal- van- tur _ _ _ _|_ o- mni- a, quo _ _ _ _|sal- van- * * * * tur _ _ _ _ _ _|
 gfed cBAG Bcde f3 e |"^-natural" dc c4 B2 c8 |] %14
w: o- * * * * * * * * * * * * *|* * * mni- a.|
V:2
 G4 B2 B2 B4 A2 FG | AB c4 =B2 c2 CD EFGA | =B2 c4 B2 c8 | z2 C2 D2 E2 F4 F2 E2 | C3 E D4 C8 | %5
w: Per il- lud a- ve pro- *|* * la- * tum, pro- * * * * *|la- * * tum,|et- tu- um re- spon- sum|da- * * tum,|
 z4 G4 A6 F2 | F2 c2 B2 A3 G G4 ^F2 | G4 z2 G2 B4 d2 G2 | B3 A G2 F2 E2 DC D3 D | %9
w: ex te ver-|bum in- car- na- * * *|tum, quo sal- van- tur|o- * * * * * * * mni-|
 C4 z2 G2 B3 A G2 F2 | E2 C2 D2 D2 CDEF GABc | d2 G2 cBAG F2 BA GFED | C2 cB AGFE DC F3 E DC | %13
w: a, quo sal- * * *|van tur o- mni- a, _ _ _ _ _ _ _|_ sal- van- * * * * tur _ _ _ _ _|_ o- * * * * * * * * * * *|
 B,2 C2 D3 D C8 |] %14
w: * * * mni- a.|

